X: 36
T: Nie obruszaj się, że kto niewstydliwie
C: Mikołaj Gomółka
%%abc-version 2.0
%%abcx-abcm2ps-target-version 5.9.1 (29 Sep 2008)
%%abc-creator hum2abc beta
%%abcx-conversion-date 2021/10/04 07:59:10
%%abc-edited-by Marta Lawrence
%%abcx-initial-encoding-date 2020-02-08
%%humdrum-veritas 3789007533
%%humdrum-veritas-data 320774935
%%linebreak <none>
%%barnumbers 0
L: 1/4
M: C|
N: Derived from pl-wn--sd-xvi-qu-273--037_gomolka-mikolaj--nie-obruszaj-sie-ze-kto-niewstydliwie.krn
%%staves [1 2 3 4]
V: 1
V: 2 clef=alto
V: 3 clef=alto
V: 4
K: Bb
[V:1] G4F2G2 [|] 
[V:2] D4D2D=E [|] 
[V:3] B,4A,2B,2 [|] 
[V:4] G,4D,2G,2 [|] 
[V:1] A4A2B2 [|] 
[V:2] F4F2F2 [|] 
[V:3] C4C2D2 [|] 
[V:4] F,4F,2B,,2 [|] 
[V:1] A2G2G2F2 [|] 
[V:2] _E2E2D3C [|] 
[V:3] C2>B,2A,G,A,2 [|] 
[V:4] C,2C,2D,2D,2 [|] 
[V:1] G4 :|]  
[V:2] =B,4 :|]  
[V:3] G,4 :|]  
[V:4] G,4 :|]  
[V:1] B4 [I:setbarnb 5][|] 
[V:2] G4 [|] 
[V:3] D4 [|] 
[V:4] G,4 [|] 
[V:1] c2A2A4 [|] 
[V:2] G2F2=E4 [|] 
[V:3] =E2D4^C2 [|] 
[V:4] C,2D,2A,,4 [|] 
[V:1] A2d2>c2BA [|] 
[V:2] ^F2D2BAGF [|] 
[V:3] D2F2>=E2D=C [|] 
[V:4] D,2B,,2B,,2B,,2 [|] 
[V:1] GFG2^F2A2 [|] 
[V:2] _ED2CD2=F3 [|] 
[V:3] B,A,G,2A,2D3 [|] 
[V:4] =E,2E,2D,2D,2 [|] 
[V:1] A2=F2GFGA [|] 
[V:2] =ED4C2 [|] 
[V:3] CB,A,G,4 [|] 
[V:4] D,2F,2=E,4 [|] 
[V:1] B2A2c3B [|] 
[V:2] D2F2G3F [|] 
[V:3] F,2D2=E3D [|] 
[V:4] D,4C,3D, [|] 
[V:1] A2G4F2 [|] 
[V:2] F=EDC2<D2C [|] 
[V:3] CB,A,G,A,4 [|] 
[V:4] F,2G,2D,4 [|] 
[V:1] G32 |]  
[V:2] B,32 |]  
[V:3] G,32 |]  
[V:4] G,32 |]  


